X: 18310
T: Humours Of Tullycrine, The
R: hornpipe
M: 4/4
K: Adorian
|:EAAB cBcd|eaag e2dB|c2Ac BAGA|Bdde dBAG|
EAAB cBcd|eaag e2dB|c2Ac BAGA|1 BAAG A3:|2 BAAG A2Bd||
|:eaa2 aged|eaab aged|egg2 aed2|dgga gedB|
A3c B3d|eaag e2dB|c2Ac BAGA|1 BAAG A2Bd:|2 BAAG A3||

